X: 5
T:Knight of St. Patrick Lancers (#81-E)
M:2/4
L:1/16
S:CONTINUATION FROM #81-D
K:A
edcB|A2(3cBA eA(3cBA|eAaA gAfA|eA(3cBA eAfA|BEcE dEBE|
A2(3cBA eA(3cBA|eAaA gAfA|efec eaec|BABc A2 z2|
E2(3GFE BE(3GFE|BEdE cEBE|A2(3cBA eA(3cBA|eAaA gAfA|
efec agaf|efec agaf|ecag fedc|BAGF EFGE||

